packages/icons/general/Masks.svg

<svg xmlns="http://www.w3.org/2000/svg" width="96" height="96" fill="none" viewBox="0 0 96 96">
    <rect width="6" height="30" x="14" y="53" fill="#1C68F3" rx="3" transform="rotate(-30 14 53)"/>
    <path fill="url(#paint0_linear_275_13631)" fill-rule="evenodd" d="M55.3044 52.2625C50.9746 53.6447 46.2884 52.9141 42.0373 50.2726C41.5758 49.9655 40.9607 49.8892 40.3834 50.0735C39.8061 50.2578 39.349 50.6763 39.1227 51.2484C37.2164 55.8101 33.779 59.1338 29.4491 60.516C22.5214 62.7274 14.651 59.4237 9.82754 52.2846C8.53766 50.379 7.49695 48.2575 6.77296 45.9895C6.43071 44.9174 6.15778 43.7777 5.93924 42.666L5.19847 38.495L8.65817 40.9348C9.30922 41.4085 10.1699 41.5427 10.9122 41.3058C11.1184 41.24 11.3114 41.1329 11.5044 41.0258L12.3791 40.065L12.4353 39.9562L12.5476 39.7386C14.9347 36.114 18.4739 33.3939 22.6388 32.0644C26.5563 30.8139 30.7581 30.8812 34.6424 32.2312C37.0261 28.8803 40.4118 26.391 44.3293 25.1405C48.4529 23.8241 52.9548 23.9774 57.0006 25.5485L57.2181 25.6608C57.3813 25.745 57.5857 25.8161 57.7901 25.8871L57.7902 25.8872L57.8446 25.9152C58.2947 26.0442 58.7878 26.0231 59.2827 25.8651C60.0662 25.615 60.6487 25.0201 60.9049 24.2568L62.2698 20.2769L64.0828 24.1057C64.6031 25.1664 64.9866 26.2254 65.3288 27.2976C66.0528 29.5656 66.4338 31.8976 66.4865 34.1982C66.774 42.7852 62.2322 50.0511 55.3044 52.2625ZM28.6162 49.6497C28.0389 49.834 27.4352 49.9358 26.8184 49.9964C23.4343 50.2133 20.2879 47.9007 18.8392 46.6364C19.8806 45.4861 21.9599 43.4592 24.5578 42.6299C25.1764 42.4325 25.7388 42.3438 26.3556 42.2832C29.7396 42.0663 32.8861 44.3789 34.3348 45.6432C33.2521 46.8067 31.1728 48.8335 28.6162 49.6497ZM42.7475 42.9578C44.2627 43.292 47.1731 43.7261 49.7297 42.91C50.3483 42.7125 50.8993 42.4458 51.3959 42.1509C54.2385 40.3802 55.5043 36.6591 55.9526 34.7893C54.4373 34.4552 51.527 34.021 48.9703 34.8371C48.3518 35.0346 47.8008 35.3014 47.3042 35.5962C44.4616 37.3669 43.1957 41.088 42.7475 42.9578Z" clip-rule="evenodd"/>
    <g filter="url(#filter0_b_275_13631)">
        <path fill="#1C68F3" fill-opacity="0.1" fill-rule="evenodd" d="M57.0611 32.9499L57.788 31.7385L91.9993 43.0292L91.8539 44.4345C91.5631 47.4873 90.9332 50.5402 89.9156 53.5445C87.5411 60.6678 83.4707 66.7735 78.4795 70.7471C74.7482 73.703 70.7262 75.2537 66.8981 75.2537C65.3959 75.2537 63.9421 75.0598 62.5369 74.5753C57.4972 72.8792 53.766 68.4211 52.07 61.9762C50.4224 55.8221 50.81 48.5049 53.1845 41.3816C54.1536 38.3772 55.462 35.5667 57.0611 32.9499ZM61.4232 52.963C62.1501 53.3022 62.9254 53.4476 63.7977 53.4476C64.573 53.4476 65.4452 53.3022 66.3659 53.0599C67.3559 52.73 68.1517 52.3167 68.5014 52.1352C68.6138 52.0768 68.6801 52.0423 68.6919 52.0423L69.6611 51.4608L69.128 50.4432C69.0796 50.2978 67.5289 47.3419 64.4761 45.9851C61.4232 44.6283 58.1766 45.5005 58.0312 45.549L56.9167 45.8397L57.1589 46.9542C57.1729 46.9682 57.2027 47.0698 57.252 47.2375C57.3744 47.6542 57.6165 48.4787 58.0312 49.3771C58.9034 51.1216 60.0664 52.3815 61.4232 52.963ZM76.4936 58.0996C76.8813 58.1965 77.269 58.2449 77.7051 58.2449C78.8681 58.2449 80.128 57.9057 81.3394 57.2758C82.5993 56.6458 83.4231 55.919 83.4716 55.8705L84.3438 55.0952L83.6654 54.1745C83.5685 54.0291 81.4848 51.3639 78.2381 50.637C75.233 49.9643 72.4355 51.1597 71.9205 51.3797C71.8792 51.3974 71.8525 51.4088 71.8417 51.4124L70.8241 51.897L71.2602 52.963C71.2602 53.0115 71.6963 54.0776 72.5201 55.1921C73.6831 56.7427 75.0399 57.7604 76.4936 58.0996Z" clip-rule="evenodd"/>
    </g>
    <defs>
        <filter id="filter0_b_275_13631" width="48.9326" height="51.5152" x="47.0664" y="27.7385" color-interpolation-filters="sRGB" filterUnits="userSpaceOnUse">
            <feFlood flood-opacity="0" result="BackgroundImageFix"/>
            <feGaussianBlur in="BackgroundImage" stdDeviation="2"/>
            <feComposite in2="SourceAlpha" operator="in" result="effect1_backgroundBlur_275_13631"/>
            <feBlend in="SourceGraphic" in2="effect1_backgroundBlur_275_13631" mode="normal" result="shape"/>
        </filter>
        <linearGradient id="paint0_linear_275_13631" x1="6" x2="65" y1="43" y2="24" gradientUnits="userSpaceOnUse">
            <stop stop-color="#1C68F3"/>
            <stop offset="1" stop-color="#6CB8FF"/>
        </linearGradient>
    </defs>
</svg>

<svg xmlns="http://www.w3.org/2000/svg" width="96" height="96" fill="none">
    <rect width="6" height="30" x="14" y="53" fill="#1C68F3" rx="3" transform="rotate(-30 14 53)"/>
    <path fill="url(#Masks_svg__a)" fill-rule="evenodd" d="M55.304 52.263c-4.33 1.382-9.016.651-13.267-1.99-.461-.308-1.076-.384-1.654-.2a1.99 1.99 0 0 0-1.26 1.175c-1.907 4.562-5.344 7.886-9.674 9.268-6.928 2.211-14.798-1.092-19.621-8.231a24.579 24.579 0 0 1-3.055-6.295 30.215 30.215 0 0 1-.834-3.324l-.74-4.171 3.46 2.44a2.564 2.564 0 0 0 2.253.37c.206-.065.4-.172.592-.28l.875-.96.056-.109.113-.217a19 19 0 0 1 10.09-7.675 18.959 18.959 0 0 1 12.004.167 18.958 18.958 0 0 1 9.687-7.09c4.124-1.317 8.626-1.164 12.672.408l.217.112c.163.084.368.155.572.226l.055.028c.45.13.943.108 1.438-.05a2.502 2.502 0 0 0 1.622-1.608l1.365-3.98 1.813 3.829c.52 1.06.904 2.12 1.246 3.192a24.574 24.574 0 0 1 1.158 6.9c.287 8.587-4.255 15.853-11.183 18.065ZM28.616 49.65a8.69 8.69 0 0 1-1.798.346c-3.384.217-6.53-2.095-7.979-3.36 1.042-1.15 3.12-3.177 5.719-4.006.618-.198 1.18-.286 1.798-.347 3.384-.217 6.53 2.096 7.979 3.36-1.083 1.164-3.162 3.19-5.719 4.007Zm14.132-6.692c1.515.334 4.425.768 6.982-.048a8.046 8.046 0 0 0 1.666-.76c2.843-1.77 4.108-5.49 4.557-7.36-1.516-.335-4.426-.769-6.983.047a8.053 8.053 0 0 0-1.666.76c-2.842 1.77-4.108 5.491-4.556 7.36Z" clip-rule="evenodd"/>
    <g filter="url(#Masks_svg__b)">
        <path fill="#1C68F3" fill-opacity=".1" fill-rule="evenodd" d="m57.061 32.95.727-1.212L91.999 43.03l-.145 1.405a40.24 40.24 0 0 1-1.938 9.11c-2.375 7.124-6.445 13.23-11.436 17.203-3.732 2.956-7.754 4.507-11.582 4.507-1.502 0-2.956-.194-4.361-.679-5.04-1.696-8.771-6.154-10.467-12.599-1.648-6.154-1.26-13.471 1.114-20.594a39.23 39.23 0 0 1 3.877-8.432Zm4.362 20.013c.727.34 1.502.485 2.375.485.775 0 1.647-.146 2.568-.388.99-.33 1.786-.743 2.135-.925.113-.058.18-.093.19-.093l.97-.581-.533-1.018c-.048-.145-1.6-3.101-4.652-4.458-3.053-1.357-6.3-.484-6.445-.436l-1.114.29.242 1.115c.014.014.044.116.093.283.122.417.364 1.242.78 2.14.871 1.745 2.034 3.005 3.391 3.586Zm15.07 5.137c.388.096.776.145 1.212.145 1.163 0 2.423-.34 3.634-.97 1.26-.63 2.084-1.356 2.133-1.404l.872-.776-.679-.92c-.097-.146-2.18-2.811-5.427-3.538-3.005-.673-5.802.523-6.317.743-.042.017-.069.029-.08.032l-1.017.485.436 1.066c0 .048.436 1.115 1.26 2.23 1.163 1.55 2.52 2.567 3.974 2.907Z" clip-rule="evenodd"/>
    </g>
    <defs>
        <linearGradient id="Masks_svg__a" x1="6" x2="65" y1="43" y2="24" gradientUnits="userSpaceOnUse">
            <stop stop-color="#1C68F3"/>
            <stop offset="1" stop-color="#6CB8FF"/>
        </linearGradient>
        <filter id="Masks_svg__b" width="48.933" height="51.515" x="47.066" y="27.738" color-interpolation-filters="sRGB" filterUnits="userSpaceOnUse">
            <feFlood flood-opacity="0" result="BackgroundImageFix"/>
            <feGaussianBlur in="BackgroundImage" stdDeviation="2"/>
            <feComposite in2="SourceAlpha" operator="in" result="effect1_backgroundBlur_275_13631"/>
            <feBlend in="SourceGraphic" in2="effect1_backgroundBlur_275_13631" result="shape"/>
        </filter>
    </defs>
</svg>
